X: 10103
T: Diferion Arian
R: slip jig
M: 9/8
K: Gmajor
|:GAB BcB d2 B|GAB BcB G2 E|GAB BcB d2 B|cAA ABG F2 D:|
|:GBd gfg e2 c|GBd gfg d2 B|GBd gfg e2 c|GBd edc BAG:|

